icons/folder_type_vscode_test3_opened.svg

<svg xmlns="http://www.w3.org/2000/svg" viewBox="0 0 32 32"><path d="M27.4 5.5h-9.2l-2.1 4.2H4.3v16.8h25.2v-21Zm0 18.7H6.6V11.8h20.8Zm0-14.5h-8.2l1-2.1h7.1v2.1Z" style="fill:#d32626"/><path d="M25.7 13.7H.5l3.8 12.8h25.2l-3.8-12.8z" style="fill:#d32626"/><path d="M30.966 11.741 26.618 10l-9.4 9.159-5.745-4.37-1.24.628V25.6l1.233.62 5.737-4.37L26.618 31l4.348-1.741V11.741ZM12.087 22.894v-4.781l2.66 2.376Zm8.513-2.405 5.312-3.974v7.979l-5.319-4Z" style="fill:#007acc"/><path d="m20.596 20.489 5.312-3.975v7.979l-5.319-4.004h.007zM12.087 22.894v-4.781l2.66 2.376-2.66 2.405z" style="fill:#fff"/></svg>

<svg xmlns="http://www.w3.org/2000/svg" viewBox="0 0 32 32"><title>folder_type_vscode_test3_opened</title><path d="M27.4,5.5H18.2L16.1,9.7H4.3V26.5H29.5V5.5Zm0,18.7H6.6V11.8H27.4Zm0-14.5H19.2l1-2.1h7.1V9.7Z" style="fill:#d32626"/><polygon points="25.7 13.7 0.5 13.7 4.3 26.5 29.5 26.5 25.7 13.7" style="fill:#d32626"/><path d="M30.966,11.741,26.618,10l-9.4,9.159-5.745-4.37-1.24.628V25.6l1.233.62,5.737-4.37L26.618,31l4.348-1.741V11.741ZM12.087,22.894V18.113l2.66,2.376ZM20.6,20.489l5.312-3.974v7.979l-5.319-4Z" style="fill:#007acc"/><polygon points="20.596 20.489 25.908 16.514 25.908 24.493 20.589 20.489 20.596 20.489" style="fill:#fff"/><polygon points="12.087 22.894 12.087 18.113 14.747 20.489 12.087 22.894" style="fill:#fff"/></svg>
